dist/svg/vending-machine-line.svg

<svg xmlns="http://www.w3.org/2000/svg" viewBox="0 0 24 24"><path d="M5.617 2.283q-.873.101-1.552.781a2.74 2.74 0 0 0-.696 1.116l-.109.32v15l.109.32c.151.445.362.783.695 1.116s.671.544 1.116.695l.32.109h13l.32-.109a2.74 2.74 0 0 0 1.116-.695c.333-.333.544-.671.695-1.116l.109-.32v-15l-.109-.32a2.74 2.74 0 0 0-.696-1.116c-.472-.471-.961-.709-1.606-.783-.425-.049-12.293-.046-12.712.002m12.911 1.59c.239.118.481.36.599.599l.093.188v14.68l-.093.189c-.132.268-.416.534-.674.63-.213.08-.297.081-6.453.081s-6.24-.001-6.453-.081c-.258-.096-.542-.362-.674-.63l-.093-.189-.011-7.26c-.009-5.436 0-7.303.035-7.43.093-.34.433-.7.782-.828.131-.048 1.114-.056 6.454-.049l6.3.007zm-11.001.949c-.627.169-1.14.746-1.248 1.403-.022.132-.038 1.253-.038 2.555 0 2.478.012 2.654.202 3.025.113.223.529.639.752.752.367.188.562.202 2.805.202s2.438-.014 2.805-.202c.223-.113.639-.529.752-.752.19-.371.202-.547.202-3.025 0-1.302-.016-2.423-.038-2.555a1.77 1.77 0 0 0-1.266-1.405c-.333-.086-4.604-.085-4.928.002m8.278.458c-.547.129-.735.839-.33 1.244.197.197.364.236 1.025.236s.828-.039 1.025-.236a.739.739 0 0 0-.348-1.246c-.19-.044-1.183-.042-1.372.002m-3.622 1.058c.048.065.057.46.057 2.416 0 2.121-.006 2.347-.066 2.413-.063.069-.183.073-2.167.073-1.899 0-2.108-.006-2.174-.066-.069-.063-.073-.19-.073-2.413 0-2.43 0-2.435.16-2.494.033-.012.993-.018 2.133-.014 2.002.007 2.075.01 2.13.085m3.622.942c-.547.129-.735.839-.33 1.244.197.197.364.236 1.025.236s.828-.039 1.025-.236a.739.739 0 0 0-.348-1.246c-.19-.044-1.183-.042-1.372.002m0 2c-.547.129-.735.839-.33 1.244.197.197.364.236 1.025.236s.828-.039 1.025-.236a.739.739 0 0 0-.348-1.246c-.19-.044-1.183-.042-1.372.002m-8.278 4.542c-.627.169-1.14.746-1.248 1.403-.05.304-.05 2.244 0 2.548a1.77 1.77 0 0 0 1.144 1.373l.261.094h4.632l.261-.094a1.77 1.77 0 0 0 1.144-1.373c.05-.304.05-2.244 0-2.548a1.77 1.77 0 0 0-1.266-1.405c-.333-.086-4.604-.085-4.928.002m4.656 1.516c.046.062.057.29.057 1.17 0 1.039-.004 1.096-.08 1.172-.078.078-.133.08-2.16.08s-2.082-.002-2.16-.08c-.076-.076-.08-.133-.08-1.172 0-1.12.008-1.185.16-1.241.033-.012.993-.018 2.133-.014 2.002.007 2.075.01 2.13.085" fill-rule="evenodd"/></svg>

<svg fill="none" xmlns="http://www.w3.org/2000/svg" viewBox="0 0 24 24"><path d="M5.617 2.283 C 5.034 2.351,4.519 2.610,4.065 3.064 C 3.732 3.396,3.521 3.735,3.369 4.180 L 3.260 4.500 3.260 12.000 L 3.260 19.500 3.369 19.820 C 3.520 20.265,3.731 20.603,4.064 20.936 C 4.397 21.269,4.735 21.480,5.180 21.631 L 5.500 21.740 12.000 21.740 L 18.500 21.740 18.820 21.631 C 19.265 21.480,19.603 21.269,19.936 20.936 C 20.269 20.603,20.480 20.265,20.631 19.820 L 20.740 19.500 20.740 12.000 L 20.740 4.500 20.631 4.180 C 20.479 3.735,20.268 3.396,19.935 3.064 C 19.463 2.593,18.974 2.355,18.329 2.281 C 17.904 2.232,6.036 2.235,5.617 2.283 M18.528 3.873 C 18.767 3.991,19.009 4.233,19.127 4.472 L 19.220 4.660 19.220 12.000 L 19.220 19.340 19.127 19.529 C 18.995 19.797,18.711 20.063,18.453 20.159 C 18.240 20.239,18.156 20.240,12.000 20.240 C 5.844 20.240,5.760 20.239,5.547 20.159 C 5.289 20.063,5.005 19.797,4.873 19.529 L 4.780 19.340 4.769 12.080 C 4.760 6.644,4.769 4.777,4.804 4.650 C 4.897 4.310,5.237 3.950,5.586 3.822 C 5.717 3.774,6.700 3.766,12.040 3.773 L 18.340 3.780 18.528 3.873 M7.527 4.822 C 6.900 4.991,6.387 5.568,6.279 6.225 C 6.257 6.357,6.241 7.478,6.241 8.780 C 6.241 11.258,6.253 11.434,6.443 11.805 C 6.556 12.028,6.972 12.444,7.195 12.557 C 7.562 12.745,7.757 12.759,10.000 12.759 C 12.243 12.759,12.438 12.745,12.805 12.557 C 13.028 12.444,13.444 12.028,13.557 11.805 C 13.747 11.434,13.759 11.258,13.759 8.780 C 13.759 7.478,13.743 6.357,13.721 6.225 C 13.612 5.558,13.098 4.988,12.455 4.820 C 12.122 4.734,7.851 4.735,7.527 4.822 M15.805 5.280 C 15.258 5.409,15.070 6.119,15.475 6.524 C 15.672 6.721,15.839 6.760,16.500 6.760 C 17.161 6.760,17.328 6.721,17.525 6.524 C 17.938 6.111,17.742 5.409,17.177 5.278 C 16.987 5.234,15.994 5.236,15.805 5.280 M12.183 6.338 C 12.231 6.403,12.240 6.798,12.240 8.754 C 12.240 10.875,12.234 11.101,12.174 11.167 C 12.111 11.236,11.991 11.240,10.007 11.240 C 8.108 11.240,7.899 11.234,7.833 11.174 C 7.764 11.111,7.760 10.984,7.760 8.761 C 7.760 6.331,7.760 6.326,7.920 6.267 C 7.953 6.255,8.913 6.249,10.053 6.253 C 12.055 6.260,12.128 6.263,12.183 6.338 M15.805 7.280 C 15.258 7.409,15.070 8.119,15.475 8.524 C 15.672 8.721,15.839 8.760,16.500 8.760 C 17.161 8.760,17.328 8.721,17.525 8.524 C 17.938 8.111,17.742 7.409,17.177 7.278 C 16.987 7.234,15.994 7.236,15.805 7.280 M15.805 9.280 C 15.258 9.409,15.070 10.119,15.475 10.524 C 15.672 10.721,15.839 10.760,16.500 10.760 C 17.161 10.760,17.328 10.721,17.525 10.524 C 17.938 10.111,17.742 9.409,17.177 9.278 C 16.987 9.234,15.994 9.236,15.805 9.280 M7.527 13.822 C 6.900 13.991,6.387 14.568,6.279 15.225 C 6.229 15.529,6.229 17.469,6.279 17.773 C 6.382 18.402,6.818 18.926,7.423 19.146 L 7.684 19.240 10.000 19.240 L 12.316 19.240 12.577 19.146 C 13.182 18.926,13.618 18.402,13.721 17.773 C 13.771 17.469,13.771 15.529,13.721 15.225 C 13.612 14.558,13.098 13.988,12.455 13.820 C 12.122 13.734,7.851 13.735,7.527 13.822 M12.183 15.338 C 12.229 15.400,12.240 15.628,12.240 16.508 C 12.240 17.547,12.236 17.604,12.160 17.680 C 12.082 17.758,12.027 17.760,10.000 17.760 C 7.973 17.760,7.918 17.758,7.840 17.680 C 7.764 17.604,7.760 17.547,7.760 16.508 C 7.760 15.388,7.768 15.323,7.920 15.267 C 7.953 15.255,8.913 15.249,10.053 15.253 C 12.055 15.260,12.128 15.263,12.183 15.338 " stroke="none" fill-rule="evenodd" fill="currentColor"/></svg>
